X: 1855
T: Sarah Sarah
B: australian traditional tunes wiki
M:4/4
L:1/8
R: Schottische
Q: 1/4=100
K:C
V:1 
"C"E2 GE "G7"A2 G2 |"C"EG AE G2 FE |"G7"D3 E F3 G |BA BA "C"E2 ED |
E2 GE "G7"A2 G2 |"C"EG AE G2 FE |"G7"D3 E F3 G |BA FD "C"C4 |
cE E2 "G7"GF F2 |BA BA "C"G2 EA/2B/2 |cE E2 "G7"GF F2 |BA FD "C"C2z2 |
"G"D2 B,C D2 GA |B2 (3AGA G2 E2 |D2 B,C D2 G2 |B2 (3AGA G3 G |
"C"GE cB A2 G2 |EG AE G2 FE |"G7"D3 E F3 G |BA FD"C" C4 ||
% abcbook-tune_id 6342d53a6c63c05f5875c256


% abcbook-boost 0
% abcbook-tablature 
% abcbook-transpose 
% abcbook-lastupdated 1665324388400
% abcbook-soundfonts 
% abcbook-repeats 1
% NFF Book 2017

